icons/modern/seedling.svg

<svg width="32" height="32" viewBox="0 0 32 32" fill="none" xmlns="http://www.w3.org/2000/svg">
<rect x="14.0312" y="8.4375" width="2.90625" height="14.0156" fill="url(#paint0_linear_28327_7560)"/>
<rect x="14.0312" y="8.4375" width="2.90625" height="14.0156" fill="url(#paint1_linear_28327_7560)"/>
<rect x="14.0312" y="8.4375" width="2.90625" height="14.0156" fill="url(#paint2_linear_28327_7560)"/>
<rect x="14.0312" y="8.4375" width="2.90625" height="14.0156" fill="url(#paint3_linear_28327_7560)"/>
<rect x="14.0312" y="8.4375" width="2.90625" height="14.0156" fill="url(#paint4_linear_28327_7560)"/>
<g filter="url(#filter0_f_28327_7560)">
<rect x="15.4844" y="8.9375" width="0.565459" height="12.5448" fill="url(#paint5_linear_28327_7560)"/>
</g>
<path d="M15 13.5919C15 9.98582 18.3281 7.29688 22.8906 7.0625H29.5294C29.7548 7.0625 29.9375 7.24521 29.9375 7.47059C29.5294 11.3438 27.375 13.6875 22.2812 14H15.4081C15.1827 14 15 13.8173 15 13.5919Z" fill="url(#paint6_linear_28327_7560)"/>
<path d="M15 13.5919C15 9.98582 18.3281 7.29688 22.8906 7.0625H29.5294C29.7548 7.0625 29.9375 7.24521 29.9375 7.47059C29.5294 11.3438 27.375 13.6875 22.2812 14H15.4081C15.1827 14 15 13.8173 15 13.5919Z" fill="url(#paint7_linear_28327_7560)"/>
<path d="M15 13.5919C15 9.98582 18.3281 7.29688 22.8906 7.0625H29.5294C29.7548 7.0625 29.9375 7.24521 29.9375 7.47059C29.5294 11.3438 27.375 13.6875 22.2812 14H15.4081C15.1827 14 15 13.8173 15 13.5919Z" fill="url(#paint8_linear_28327_7560)"/>
<path d="M15 13.5919C15 9.98582 18.3281 7.29688 22.8906 7.0625H29.5294C29.7548 7.0625 29.9375 7.24521 29.9375 7.47059C29.5294 11.3438 27.375 13.6875 22.2812 14H15.4081C15.1827 14 15 13.8173 15 13.5919Z" fill="url(#paint9_radial_28327_7560)"/>
<g filter="url(#filter1_f_28327_7560)">
<path d="M15.9449 12.9025C15.9449 10.1087 19.1783 8.02557 22.804 7.84399H28.6872C28.8663 7.84399 29.0115 7.98554 29.0115 8.16015C28.6872 11.1608 26.3676 12.9765 22.3197 13.2186H16.2692C16.0901 13.2186 15.9449 13.0771 15.9449 12.9025Z" fill="url(#paint10_linear_28327_7560)"/>
</g>
<g filter="url(#filter2_i_28327_7560)">
<path d="M16.9375 8.52941C16.9375 4.92332 13.6094 2.23438 9.04688 2H2.40809C2.18271 2 2 2.18271 2 2.40809C2.40809 6.28125 4.5625 8.625 9.65625 8.9375H16.5294C16.7548 8.9375 16.9375 8.75479 16.9375 8.52941Z" fill="url(#paint11_linear_28327_7560)"/>
</g>
<g filter="url(#filter3_f_28327_7560)">
<path d="M16.0498 7.57813C16.0498 5.09284 13.2414 3.23965 9.39137 3.07812H3.78928C3.59909 3.07812 3.44492 3.20404 3.44492 3.35938C3.78928 6.02872 5.60726 7.644 9.90558 7.85938H15.7054C15.8956 7.85938 16.0498 7.73346 16.0498 7.57813Z" fill="url(#paint12_linear_28327_7560)"/>
</g>
<g filter="url(#filter4_i_28327_7560)">
<path d="M15.5148 20.9375C10.4555 20.9375 6.3216 24.7232 6.04986 29.49C6.03414 29.7656 6.2595 29.9899 6.53564 29.9899H24.5044C24.7805 29.9899 25.0059 29.7656 24.9902 29.49C24.7184 24.7232 20.5841 20.9375 15.5148 20.9375Z" fill="url(#paint13_radial_28327_7560)"/>
<path d="M15.5148 20.9375C10.4555 20.9375 6.3216 24.7232 6.04986 29.49C6.03414 29.7656 6.2595 29.9899 6.53564 29.9899H24.5044C24.7805 29.9899 25.0059 29.7656 24.9902 29.49C24.7184 24.7232 20.5841 20.9375 15.5148 20.9375Z" fill="url(#paint14_linear_28327_7560)"/>
<path d="M15.5148 20.9375C10.4555 20.9375 6.3216 24.7232 6.04986 29.49C6.03414 29.7656 6.2595 29.9899 6.53564 29.9899H24.5044C24.7805 29.9899 25.0059 29.7656 24.9902 29.49C24.7184 24.7232 20.5841 20.9375 15.5148 20.9375Z" fill="url(#paint15_radial_28327_7560)"/>
<path d="M15.5148 20.9375C10.4555 20.9375 6.3216 24.7232 6.04986 29.49C6.03414 29.7656 6.2595 29.9899 6.53564 29.9899H24.5044C24.7805 29.9899 25.0059 29.7656 24.9902 29.49C24.7184 24.7232 20.5841 20.9375 15.5148 20.9375Z" fill="url(#paint16_radial_28327_7560)"/>
</g>
<g filter="url(#filter5_f_28327_7560)">
<path d="M11.6637 3.28125C12.8199 3.5 15.3074 4.6375 16.0074 7.4375" stroke="url(#paint17_linear_28327_7560)" stroke-width="0.5" stroke-linecap="round"/>
</g>
<defs>
<filter id="filter0_f_28327_7560" x="14.4844" y="7.9375" width="2.56543" height="14.5447" filterUnits="userSpaceOnUse" color-interpolation-filters="sRGB">
<feFlood flood-opacity="0" result="BackgroundImageFix"/>
<feBlend mode="normal" in="SourceGraphic" in2="BackgroundImageFix" result="shape"/>
<feGaussianBlur stdDeviation="0.5" result="effect1_foregroundBlur_28327_7560"/>
</filter>
<filter id="filter1_f_28327_7560" x="13.9449" y="5.84399" width="17.0665" height="9.37451" filterUnits="userSpaceOnUse" color-interpolation-filters="sRGB">
<feFlood flood-opacity="0" result="BackgroundImageFix"/>
<feBlend mode="normal" in="SourceGraphic" in2="BackgroundImageFix" result="shape"/>
<feGaussianBlur stdDeviation="1" result="effect1_foregroundBlur_28327_7560"/>
</filter>
<filter id="filter2_i_28327_7560" x="2" y="1.75" width="15.1875" height="7.1875" filterUnits="userSpaceOnUse" color-interpolation-filters="sRGB">
<feFlood flood-opacity="0" result="BackgroundImageFix"/>
<feBlend mode="normal" in="SourceGraphic" in2="BackgroundImageFix" result="shape"/>
<feColorMatrix in="SourceAlpha" type="matrix" values="0 0 0 0 0 0 0 0 0 0 0 0 0 0 0 0 0 0 127 0" result="hardAlpha"/>
<feOffset dx="0.25" dy="-0.25"/>
<feGaussianBlur stdDeviation="0.5"/>
<feComposite in2="hardAlpha" operator="arithmetic" k2="-1" k3="1"/>
<feColorMatrix type="matrix" values="0 0 0 0 0.507148 0 0 0 0 0.6625 0 0 0 0 0.339531 0 0 0 1 0"/>
<feBlend mode="normal" in2="shape" result="effect1_innerShadow_28327_7560"/>
</filter>
<filter id="filter3_f_28327_7560" x="1.44495" y="1.07812" width="16.6049" height="8.78125" filterUnits="userSpaceOnUse" color-interpolation-filters="sRGB">
<feFlood flood-opacity="0" result="BackgroundImageFix"/>
<feBlend mode="normal" in="SourceGraphic" in2="BackgroundImageFix" result="shape"/>
<feGaussianBlur stdDeviation="1" result="effect1_foregroundBlur_28327_7560"/>
</filter>
<filter id="filter4_i_28327_7560" x="6.04907" y="20.9375" width="19.0919" height="9.20249" filterUnits="userSpaceOnUse" color-interpolation-filters="sRGB">
<feFlood flood-opacity="0" result="BackgroundImageFix"/>
<feBlend mode="normal" in="SourceGraphic" in2="BackgroundImageFix" result="shape"/>
<feColorMatrix in="SourceAlpha" type="matrix" values="0 0 0 0 0 0 0 0 0 0 0 0 0 0 0 0 0 0 127 0" result="hardAlpha"/>
<feOffset dx="0.15" dy="0.15"/>
<feGaussianBlur stdDeviation="0.25"/>
<feComposite in2="hardAlpha" operator="arithmetic" k2="-1" k3="1"/>
<feColorMatrix type="matrix" values="0 0 0 0 0.556863 0 0 0 0 0.490196 0 0 0 0 0.486275 0 0 0 1 0"/>
<feBlend mode="normal" in2="shape" result="effect1_innerShadow_28327_7560"/>
</filter>
<filter id="filter5_f_28327_7560" x="10.4136" y="2.03125" width="6.84387" height="6.65625" filterUnits="userSpaceOnUse" color-interpolation-filters="sRGB">
<feFlood flood-opacity="0" result="BackgroundImageFix"/>
<feBlend mode="normal" in="SourceGraphic" in2="BackgroundImageFix" result="shape"/>
<feGaussianBlur stdDeviation="0.5" result="effect1_foregroundBlur_28327_7560"/>
</filter>
<linearGradient id="paint0_linear_28327_7560" x1="15.4844" y1="7.68401" x2="15.4844" y2="19.2381" gradientUnits="userSpaceOnUse">
<stop stop-color="#82BB30"/>
<stop offset="1" stop-color="#94D22F"/>
</linearGradient>
<linearGradient id="paint1_linear_28327_7560" x1="15.4844" y1="7.68401" x2="15.4844" y2="19.2381" gradientUnits="userSpaceOnUse">
<stop stop-color="#82BB30"/>
<stop offset="1" stop-color="#97D630"/>
</linearGradient>
<linearGradient id="paint2_linear_28327_7560" x1="13.7118" y1="18.3783" x2="14.9614" y2="18.3783" gradientUnits="userSpaceOnUse">
<stop stop-color="#86B95C"/>
<stop offset="1" stop-color="#86B95C" stop-opacity="0"/>
</linearGradient>
<linearGradient id="paint3_linear_28327_7560" x1="14.6793" y1="8.4375" x2="15.0421" y2="9.63091" gradientUnits="userSpaceOnUse">
<stop stop-color="#86B95C"/>
<stop offset="1" stop-color="#86B95C" stop-opacity="0"/>
</linearGradient>
<linearGradient id="paint4_linear_28327_7560" x1="17.2592" y1="13.5612" x2="16.3119" y2="13.6217" gradientUnits="userSpaceOnUse">
<stop stop-color="#86B95C"/>
<stop offset="1" stop-color="#86B95C" stop-opacity="0"/>
</linearGradient>
<linearGradient id="paint5_linear_28327_7560" x1="15.7671" y1="8.9375" x2="15.7671" y2="21.4823" gradientUnits="userSpaceOnUse">
<stop stop-color="#9ED75B"/>
<stop offset="1" stop-color="#BCF461"/>
</linearGradient>
<linearGradient id="paint6_linear_28327_7560" x1="19.9197" y1="14" x2="29.0299" y2="6.32544" gradientUnits="userSpaceOnUse">
<stop stop-color="#8DB746"/>
<stop offset="1" stop-color="#ABEE48"/>
</linearGradient>
<linearGradient id="paint7_linear_28327_7560" x1="22.0158" y1="14.186" x2="22.0158" y2="13.3395" gradientUnits="userSpaceOnUse">
<stop stop-color="#97B86E"/>
<stop offset="1" stop-color="#97B86E" stop-opacity="0"/>
</linearGradient>
<linearGradient id="paint8_linear_28327_7560" x1="17.2574" y1="7.90625" x2="18.8824" y2="9.8125" gradientUnits="userSpaceOnUse">
<stop stop-color="#6CAF09"/>
<stop offset="1" stop-color="#6CAF09" stop-opacity="0"/>
</linearGradient>
<radialGradient id="paint9_radial_28327_7560" cx="0" cy="0" r="1" gradientUnits="userSpaceOnUse" gradientTransform="translate(30.2262 7.0625) rotate(145.134) scale(4.64659 0.54368)">
<stop stop-color="#CBFF78"/>
<stop offset="1" stop-color="#CBFF78" stop-opacity="0"/>
</radialGradient>
<linearGradient id="paint10_linear_28327_7560" x1="20.4431" y1="13.2186" x2="27.5293" y2="7.0954" gradientUnits="userSpaceOnUse">
<stop stop-color="#A0CC4C"/>
<stop offset="1" stop-color="#C2FD65"/>
</linearGradient>
<linearGradient id="paint11_linear_28327_7560" x1="17.9449" y1="8.4375" x2="3.00745" y2="1.375" gradientUnits="userSpaceOnUse">
<stop stop-color="#97DA22"/>
<stop offset="1" stop-color="#90CD2F"/>
</linearGradient>
<linearGradient id="paint12_linear_28327_7560" x1="16.8999" y1="7.51478" x2="6.18356" y2="1.75127" gradientUnits="userSpaceOnUse">
<stop stop-color="#B6EB53"/>
<stop offset="1" stop-color="#A0D930"/>
</linearGradient>
<radialGradient id="paint13_radial_28327_7560" cx="0" cy="0" r="1" gradientUnits="userSpaceOnUse" gradientTransform="translate(19.9345 30.7444) rotate(-135.607) scale(11.2194 10.7143)">
<stop stop-color="#BF8B88"/>
<stop offset="1" stop-color="#835146"/>
</radialGradient>
<linearGradient id="paint14_linear_28327_7560" x1="15.52" y1="30.1137" x2="15.52" y2="29.5391" gradientUnits="userSpaceOnUse">
<stop stop-color="#964972"/>
<stop offset="1" stop-color="#964972" stop-opacity="0"/>
</linearGradient>
<radialGradient id="paint15_radial_28327_7560" cx="0" cy="0" r="1" gradientUnits="userSpaceOnUse" gradientTransform="translate(11.8389 31.3809) rotate(-75.2592) scale(6.91894 5.0108)">
<stop stop-color="#A3646D"/>
<stop offset="1" stop-color="#A3646D" stop-opacity="0"/>
</radialGradient>
<radialGradient id="paint16_radial_28327_7560" cx="0" cy="0" r="1" gradientUnits="userSpaceOnUse" gradientTransform="translate(25.38 20.9375) rotate(134.291) scale(6.32327 11.5294)">
<stop stop-color="#BF8B88"/>
<stop offset="1" stop-color="#BF8B88" stop-opacity="0"/>
</radialGradient>
<linearGradient id="paint17_linear_28327_7560" x1="15.4449" y1="6.875" x2="14.051" y2="2.22228" gradientUnits="userSpaceOnUse">
<stop stop-color="#D1FF77"/>
<stop offset="1" stop-color="#D1FF77" stop-opacity="0"/>
</linearGradient>
</defs>
</svg>

<svg width="32" height="32" fill="none" xmlns="http://www.w3.org/2000/svg"><path fill="url(#a)" d="M14.031 8.438h2.906v14.016h-2.906z"/><path fill="url(#b)" d="M14.031 8.438h2.906v14.016h-2.906z"/><path fill="url(#c)" d="M14.031 8.438h2.906v14.016h-2.906z"/><path fill="url(#d)" d="M14.031 8.438h2.906v14.016h-2.906z"/><path fill="url(#e)" d="M14.031 8.438h2.906v14.016h-2.906z"/><g filter="url(#f)"><path fill="url(#g)" d="M15.484 8.938h.565v12.545h-.565z"/></g><path d="M15 13.592c0-3.606 3.328-6.295 7.89-6.53h6.64c.225 0 .407.183.407.409-.408 3.873-2.562 6.216-7.656 6.529h-6.873a.408.408 0 0 1-.408-.408Z" fill="url(#h)"/><path d="M15 13.592c0-3.606 3.328-6.295 7.89-6.53h6.64c.225 0 .407.183.407.409-.408 3.873-2.562 6.216-7.656 6.529h-6.873a.408.408 0 0 1-.408-.408Z" fill="url(#i)"/><path d="M15 13.592c0-3.606 3.328-6.295 7.89-6.53h6.64c.225 0 .407.183.407.409-.408 3.873-2.562 6.216-7.656 6.529h-6.873a.408.408 0 0 1-.408-.408Z" fill="url(#j)"/><path d="M15 13.592c0-3.606 3.328-6.295 7.89-6.53h6.64c.225 0 .407.183.407.409-.408 3.873-2.562 6.216-7.656 6.529h-6.873a.408.408 0 0 1-.408-.408Z" fill="url(#k)"/><g filter="url(#l)"><path d="M15.945 12.902c0-2.793 3.233-4.876 6.859-5.058h5.883a.32.32 0 0 1 .325.316c-.325 3-2.644 4.816-6.692 5.059h-6.05a.32.32 0 0 1-.325-.316Z" fill="url(#m)"/></g><g filter="url(#n)"><path d="M16.938 8.53c0-3.607-3.329-6.296-7.891-6.53H2.408A.408.408 0 0 0 2 2.408c.408 3.873 2.563 6.217 7.656 6.53h6.873a.408.408 0 0 0 .409-.409Z" fill="url(#o)"/></g><g filter="url(#p)"><path d="M16.05 7.578c0-2.485-2.809-4.338-6.659-4.5H3.79c-.19 0-.344.126-.344.281.344 2.67 2.162 4.285 6.46 4.5h5.8c.19 0 .345-.126.345-.28Z" fill="url(#q)"/></g><g filter="url(#r)"><path d="M15.515 20.938c-5.06 0-9.193 3.785-9.465 8.552-.016.276.21.5.486.5h17.968a.479.479 0 0 0 .486-.5c-.272-4.767-4.406-8.552-9.475-8.552Z" fill="url(#s)"/><path d="M15.515 20.938c-5.06 0-9.193 3.785-9.465 8.552-.016.276.21.5.486.5h17.968a.479.479 0 0 0 .486-.5c-.272-4.767-4.406-8.552-9.475-8.552Z" fill="url(#t)"/><path d="M15.515 20.938c-5.06 0-9.193 3.785-9.465 8.552-.016.276.21.5.486.5h17.968a.479.479 0 0 0 .486-.5c-.272-4.767-4.406-8.552-9.475-8.552Z" fill="url(#u)"/><path d="M15.515 20.938c-5.06 0-9.193 3.785-9.465 8.552-.016.276.21.5.486.5h17.968a.479.479 0 0 0 .486-.5c-.272-4.767-4.406-8.552-9.475-8.552Z" fill="url(#v)"/></g><g filter="url(#w)"><path d="M11.664 3.281c1.156.219 3.643 1.357 4.343 4.156" stroke="url(#x)" stroke-width=".5" stroke-linecap="round"/></g><defs><linearGradient id="a" x1="15.484" y1="7.684" x2="15.484" y2="19.238" gradientUnits="userSpaceOnUse"><stop stop-color="#82BB30"/><stop offset="1" stop-color="#94D22F"/></linearGradient><linearGradient id="b" x1="15.484" y1="7.684" x2="15.484" y2="19.238" gradientUnits="userSpaceOnUse"><stop stop-color="#82BB30"/><stop offset="1" stop-color="#97D630"/></linearGradient><linearGradient id="c" x1="13.712" y1="18.378" x2="14.961" y2="18.378" gradientUnits="userSpaceOnUse"><stop stop-color="#86B95C"/><stop offset="1" stop-color="#86B95C" stop-opacity="0"/></linearGradient><linearGradient id="d" x1="14.679" y1="8.438" x2="15.042" y2="9.631" gradientUnits="userSpaceOnUse"><stop stop-color="#86B95C"/><stop offset="1" stop-color="#86B95C" stop-opacity="0"/></linearGradient><linearGradient id="e" x1="17.259" y1="13.561" x2="16.312" y2="13.622" gradientUnits="userSpaceOnUse"><stop stop-color="#86B95C"/><stop offset="1" stop-color="#86B95C" stop-opacity="0"/></linearGradient><linearGradient id="g" x1="15.767" y1="8.938" x2="15.767" y2="21.482" gradientUnits="userSpaceOnUse"><stop stop-color="#9ED75B"/><stop offset="1" stop-color="#BCF461"/></linearGradient><linearGradient id="h" x1="19.92" y1="14" x2="29.03" y2="6.325" gradientUnits="userSpaceOnUse"><stop stop-color="#8DB746"/><stop offset="1" stop-color="#ABEE48"/></linearGradient><linearGradient id="i" x1="22.016" y1="14.186" x2="22.016" y2="13.339" gradientUnits="userSpaceOnUse"><stop stop-color="#97B86E"/><stop offset="1" stop-color="#97B86E" stop-opacity="0"/></linearGradient><linearGradient id="j" x1="17.257" y1="7.906" x2="18.882" y2="9.813" gradientUnits="userSpaceOnUse"><stop stop-color="#6CAF09"/><stop offset="1" stop-color="#6CAF09" stop-opacity="0"/></linearGradient><linearGradient id="m" x1="20.443" y1="13.219" x2="27.529" y2="7.095" gradientUnits="userSpaceOnUse"><stop stop-color="#A0CC4C"/><stop offset="1" stop-color="#C2FD65"/></linearGradient><linearGradient id="o" x1="17.945" y1="8.438" x2="3.007" y2="1.375" gradientUnits="userSpaceOnUse"><stop stop-color="#97DA22"/><stop offset="1" stop-color="#90CD2F"/></linearGradient><linearGradient id="q" x1="16.9" y1="7.515" x2="6.184" y2="1.751" gradientUnits="userSpaceOnUse"><stop stop-color="#B6EB53"/><stop offset="1" stop-color="#A0D930"/></linearGradient><linearGradient id="t" x1="15.52" y1="30.114" x2="15.52" y2="29.539" gradientUnits="userSpaceOnUse"><stop stop-color="#964972"/><stop offset="1" stop-color="#964972" stop-opacity="0"/></linearGradient><linearGradient id="x" x1="15.445" y1="6.875" x2="14.051" y2="2.222" gradientUnits="userSpaceOnUse"><stop stop-color="#D1FF77"/><stop offset="1" stop-color="#D1FF77" stop-opacity="0"/></linearGradient><filter id="f" x="14.484" y="7.938" width="2.565" height="14.545" filterUnits="userSpaceOnUse" color-interpolation-filters="sRGB"><feFlood flood-opacity="0" result="BackgroundImageFix"/><feBlend in="SourceGraphic" in2="BackgroundImageFix" result="shape"/><feGaussianBlur stdDeviation=".5" result="effect1_foregroundBlur_28327_7560"/></filter><filter id="l" x="13.945" y="5.844" width="17.067" height="9.375" filterUnits="userSpaceOnUse" color-interpolation-filters="sRGB"><feFlood flood-opacity="0" result="BackgroundImageFix"/><feBlend in="SourceGraphic" in2="BackgroundImageFix" result="shape"/><feGaussianBlur stdDeviation="1" result="effect1_foregroundBlur_28327_7560"/></filter><filter id="n" x="2" y="1.75" width="15.188" height="7.188" filterUnits="userSpaceOnUse" color-interpolation-filters="sRGB"><feFlood flood-opacity="0" result="BackgroundImageFix"/><feBlend in="SourceGraphic" in2="BackgroundImageFix" result="shape"/><feColorMatrix in="SourceAlpha" values="0 0 0 0 0 0 0 0 0 0 0 0 0 0 0 0 0 0 127 0" result="hardAlpha"/><feOffset dx=".25" dy="-.25"/><feGaussianBlur stdDeviation=".5"/><feComposite in2="hardAlpha" operator="arithmetic" k2="-1" k3="1"/><feColorMatrix values="0 0 0 0 0.507148 0 0 0 0 0.6625 0 0 0 0 0.339531 0 0 0 1 0"/><feBlend in2="shape" result="effect1_innerShadow_28327_7560"/></filter><filter id="p" x="1.445" y="1.078" width="16.605" height="8.781" filterUnits="userSpaceOnUse" color-interpolation-filters="sRGB"><feFlood flood-opacity="0" result="BackgroundImageFix"/><feBlend in="SourceGraphic" in2="BackgroundImageFix" result="shape"/><feGaussianBlur stdDeviation="1" result="effect1_foregroundBlur_28327_7560"/></filter><filter id="r" x="6.049" y="20.938" width="19.092" height="9.202" filterUnits="userSpaceOnUse" color-interpolation-filters="sRGB"><feFlood flood-opacity="0" result="BackgroundImageFix"/><feBlend in="SourceGraphic" in2="BackgroundImageFix" result="shape"/><feColorMatrix in="SourceAlpha" values="0 0 0 0 0 0 0 0 0 0 0 0 0 0 0 0 0 0 127 0" result="hardAlpha"/><feOffset dx=".15" dy=".15"/><feGaussianBlur stdDeviation=".25"/><feComposite in2="hardAlpha" operator="arithmetic" k2="-1" k3="1"/><feColorMatrix values="0 0 0 0 0.556863 0 0 0 0 0.490196 0 0 0 0 0.486275 0 0 0 1 0"/><feBlend in2="shape" result="effect1_innerShadow_28327_7560"/></filter><filter id="w" x="10.414" y="2.031" width="6.844" height="6.656" filterUnits="userSpaceOnUse" color-interpolation-filters="sRGB"><feFlood flood-opacity="0" result="BackgroundImageFix"/><feBlend in="SourceGraphic" in2="BackgroundImageFix" result="shape"/><feGaussianBlur stdDeviation=".5" result="effect1_foregroundBlur_28327_7560"/></filter><radialGradient id="k" cx="0" cy="0" r="1" gradientUnits="userSpaceOnUse" gradientTransform="rotate(145.134 14.004 8.277) scale(4.64659 .54368)"><stop stop-color="#CBFF78"/><stop offset="1" stop-color="#CBFF78" stop-opacity="0"/></radialGradient><radialGradient id="s" cx="0" cy="0" r="1" gradientUnits="userSpaceOnUse" gradientTransform="matrix(-8.01691 -7.84882 7.49547 -7.65599 19.934 30.744)"><stop stop-color="#BF8B88"/><stop offset="1" stop-color="#835146"/></radialGradient><radialGradient id="u" cx="0" cy="0" r="1" gradientUnits="userSpaceOnUse" gradientTransform="rotate(-75.259 26.272 8.012) scale(6.91894 5.0108)"><stop stop-color="#A3646D"/><stop offset="1" stop-color="#A3646D" stop-opacity="0"/></radialGradient><radialGradient id="v" cx="0" cy="0" r="1" gradientUnits="userSpaceOnUse" gradientTransform="rotate(134.291 8.278 15.817) scale(6.32327 11.5294)"><stop stop-color="#BF8B88"/><stop offset="1" stop-color="#BF8B88" stop-opacity="0"/></radialGradient></defs></svg>
